information-slab-symbol.svg

<svg fill="currentColor" viewBox="0 0 24 24"><path d="M13 9h-2V7h2zm1 6v2h-4v-2h1v-2h-1v-2h3v4z"/></svg>

<svg  viewBox="0 0 24 24" fill="currentColor"><path  d="M13 9H11V7H13V9M14 15V17H10V15H11V13H10V11H13V15H14Z"/></svg>
